src/pos-icons/head-snowflake-outline.svg

<svg height="24" viewBox="0 0 24 24" width="24" xmlns="http://www.w3.org/2000/svg"><path d="m13 3c3.88 0 7 3.14 7 7 0 2.8-1.63 5.19-4 6.31v4.69h-7v-3h-1c-1.11 0-2-.89-2-2v-3h-1.5c-.42 0-.66-.5-.42-.81l1.92-2.53c.19-3.71 3.23-6.66 7-6.66m0-2c-4.59 0-8.39 3.42-8.94 7.9l-1.56 2.1h-.03l-.02.03c-.55.76-.62 1.76-.19 2.59.36.69 1 1.17 1.74 1.32v1.06c0 1.85 1.28 3.42 3 3.87v3.13h11v-5.5c2.5-1.67 4-4.44 4-7.5 0-4.97-4.04-9-9-9m4.33 8.3-1.96.51 1.44 1.46c.35.34.35.92 0 1.27s-.93.35-1.27 0l-1.45-1.44-.52 1.96c-.12.49-.61.76-1.07.64-.5-.13-.78-.62-.66-1.11l.53-1.96-1.96.53c-.49.12-.98-.16-1.11-.66-.12-.45.16-.95.64-1.07l1.96-.52-1.44-1.45c-.35-.34-.35-.91 0-1.27.35-.35.93-.35 1.27 0l1.46 1.44.51-1.96c.12-.49.62-.77 1.09-.64.49.13.77.62.64 1.1l-.53 1.97 1.97-.53c.48-.13.97.15 1.1.64.13.47-.15.97-.64 1.09z"/></svg>

<?xml version="1.0" encoding="UTF-8"?><!DOCTYPE svg PUBLIC "-//W3C//DTD SVG 1.1//EN" "http://www.w3.org/Graphics/SVG/1.1/DTD/svg11.dtd"><svg xmlns="http://www.w3.org/2000/svg" xmlns:xlink="http://www.w3.org/1999/xlink" version="1.1" id="mdi-head-snowflake-outline" width="24" height="24" viewBox="0 0 24 24"><path d="M13 3C16.88 3 20 6.14 20 10C20 12.8 18.37 15.19 16 16.31V21H9V18H8C6.89 18 6 17.11 6 16V13H4.5C4.08 13 3.84 12.5 4.08 12.19L6 9.66C6.19 5.95 9.23 3 13 3M13 1C8.41 1 4.61 4.42 4.06 8.9L2.5 11L2.47 11L2.45 11.03C1.9 11.79 1.83 12.79 2.26 13.62C2.62 14.31 3.26 14.79 4 14.94V16C4 17.85 5.28 19.42 7 19.87V23H18V17.5C20.5 15.83 22 13.06 22 10C22 5.03 17.96 1 13 1M17.33 9.3L15.37 9.81L16.81 11.27C17.16 11.61 17.16 12.19 16.81 12.54S15.88 12.89 15.54 12.54L14.09 11.1L13.57 13.06C13.45 13.55 12.96 13.82 12.5 13.7C12 13.57 11.72 13.08 11.84 12.59L12.37 10.63L10.41 11.16C9.92 11.28 9.43 11 9.3 10.5C9.18 10.05 9.46 9.55 9.94 9.43L11.9 8.91L10.46 7.46C10.11 7.12 10.11 6.55 10.46 6.19C10.81 5.84 11.39 5.84 11.73 6.19L13.19 7.63L13.7 5.67C13.82 5.18 14.32 4.9 14.79 5.03C15.28 5.16 15.56 5.65 15.43 6.13L14.9 8.1L16.87 7.57C17.35 7.44 17.84 7.72 17.97 8.21C18.1 8.68 17.82 9.18 17.33 9.3Z" /></svg>
